X:5361
T:Quick March East York Militia
O:england
R:March
M:6/8
R:Jig
K:G
A|\
BAB cAF| G2G G2G| BAB cAF| G2G G2A| \
(B/c/d)d d2d| (e/f/g)g g2e| ded dcB| A2B cBA|\
BAB cAF| G2G G2A| BAB cAF| G2G G2A|\
Bcd ddd| efg gge| dBd cBA| G2G G2::
(B/c/)|\
ded dcB| c3 A2(A/B/)| cdc cBA| B3 G2 B/c/|\
ded dcB| gag g2e| ded dcB| A2B cBc||\
ded dcB| c3 A2A/B/| cdc cBA| B3 G2 B/c/|\
ded dcB| gbg g2e| ded dcB| A2B "Da Capo"cBA|]
